static/img/kroki/4d054305778c2477a134e46cee35185f.svg

<?xml version="1.0" encoding="us-ascii" standalone="no"?><svg xmlns="http://www.w3.org/2000/svg" xmlns:xlink="http://www.w3.org/1999/xlink" contentStyleType="text/css" height="767px" preserveAspectRatio="none" style="width:403px;height:767px;" version="1.1" viewBox="0 0 403 767" width="403px" zoomAndPan="magnify"><defs/><g><!--class aws_iam_server_certificate--><g id="elem_aws_iam_server_certificate"><rect codeLine="23" fill="#3D176E" height="74.0859" id="aws_iam_server_certificate" rx="2.5" ry="2.5" style="stroke:#000D19;stroke-width:0.5;" width="269" x="55" y="686.43"/><ellipse cx="70" cy="706.3245" fill="#ADD1B2" rx="11" ry="11" style="stroke:#181818;stroke-width:1.0;"/><path d="M72.9688,711.9652 Q72.3906,712.262 71.75,712.4027 Q71.1094,712.5589 70.4063,712.5589 Q67.9063,712.5589 66.5781,710.9183 Q65.2656,709.262 65.2656,706.137 Q65.2656,703.012 66.5781,701.3558 Q67.9063,699.6995 70.4063,699.6995 Q71.1094,699.6995 71.75,699.8558 Q72.4063,700.012 72.9688,700.3089 L72.9688,703.0277 Q72.3438,702.4495 71.75,702.1839 Q71.1563,701.9027 70.5313,701.9027 Q69.1875,701.9027 68.5,702.9808 Q67.8125,704.0433 67.8125,706.137 Q67.8125,708.2308 68.5,709.3089 Q69.1875,710.3714 70.5313,710.3714 Q71.1563,710.3714 71.75,710.1058 Q72.3438,709.8245 72.9688,709.2464 L72.9688,711.9652 Z " fill="#000000"/><text fill="#D9B8FF" font-family="Helvetica" font-size="17" lengthAdjust="spacing" textLength="227" x="89" y="712.2098">aws_iam_server_certificate</text><line style="stroke:#000D19;stroke-width:0.5;" x1="56" x2="323" y1="726.2191" y2="726.2191"/><text fill="#D9B8FF" font-family="sans-serif" font-size="14" font-weight="bold" lengthAdjust="spacing" textLength="35" x="66" y="748.2142">path</text><text fill="#D9B8FF" font-family="sans-serif" font-size="14" lengthAdjust="spacing" textLength="48" x="101" y="748.2142">: string</text></g><!--class aws_resource--><g id="elem_aws_resource"><rect codeLine="26" fill="#3D176E" height="74.0859" id="aws_resource" rx="2.5" ry="2.5" style="stroke:#000D19;stroke-width:0.5;" width="155" x="7" y="465.05"/><ellipse cx="22" cy="484.9445" fill="#ADD1B2" rx="11" ry="11" style="stroke:#181818;stroke-width:1.0;"/><path d="M24.9688,490.5852 Q24.3906,490.882 23.75,491.0227 Q23.1094,491.1789 22.4063,491.1789 Q19.9063,491.1789 18.5781,489.5383 Q17.2656,487.882 17.2656,484.757 Q17.2656,481.632 18.5781,479.9758 Q19.9063,478.3195 22.4063,478.3195 Q23.1094,478.3195 23.75,478.4758 Q24.4063,478.632 24.9688,478.9289 L24.9688,481.6477 Q24.3438,481.0695 23.75,480.8039 Q23.1563,480.5227 22.5313,480.5227 Q21.1875,480.5227 20.5,481.6008 Q19.8125,482.6633 19.8125,484.757 Q19.8125,486.8508 20.5,487.9289 Q21.1875,488.9914 22.5313,488.9914 Q23.1563,488.9914 23.75,488.7258 Q24.3438,488.4445 24.9688,487.8664 L24.9688,490.5852 Z " fill="#000000"/><text fill="#D9B8FF" font-family="Helvetica" font-size="17" lengthAdjust="spacing" textLength="113" x="41" y="490.8298">aws_resource</text><line style="stroke:#000D19;stroke-width:0.5;" x1="8" x2="161" y1="504.8391" y2="504.8391"/><text fill="#D9B8FF" font-family="sans-serif" font-size="14" font-weight="bold" lengthAdjust="spacing" textLength="26" x="18" y="526.8342">arn</text><text fill="#D9B8FF" font-family="sans-serif" font-size="14" lengthAdjust="spacing" textLength="48" x="44" y="526.8342">: string</text></g><!--class certificate--><g id="elem_certificate"><rect codeLine="29" fill="#3D176E" height="126.6797" id="certificate" rx="2.5" ry="2.5" style="stroke:#000D19;stroke-width:0.5;" width="199" x="197" y="438.75"/><ellipse cx="245.75" cy="458.6445" fill="#ADD1B2" rx="11" ry="11" style="stroke:#181818;stroke-width:1.0;"/><path d="M248.7188,464.2852 Q248.1406,464.582 247.5,464.7227 Q246.8594,464.8789 246.1563,464.8789 Q243.6563,464.8789 242.3281,463.2383 Q241.0156,461.582 241.0156,458.457 Q241.0156,455.332 242.3281,453.6758 Q243.6563,452.0195 246.1563,452.0195 Q246.8594,452.0195 247.5,452.1758 Q248.1563,452.332 248.7188,452.6289 L248.7188,455.3477 Q248.0938,454.7695 247.5,454.5039 Q246.9063,454.2227 246.2813,454.2227 Q244.9375,454.2227 244.25,455.3008 Q243.5625,456.3633 243.5625,458.457 Q243.5625,460.5508 244.25,461.6289 Q244.9375,462.6914 246.2813,462.6914 Q246.9063,462.6914 247.5,462.4258 Q248.0938,462.1445 248.7188,461.5664 L248.7188,464.2852 Z " fill="#000000"/><text fill="#D9B8FF" font-family="Helvetica" font-size="17" lengthAdjust="spacing" textLength="83" x="271.25" y="464.5298">certificate</text><line style="stroke:#000D19;stroke-width:0.5;" x1="198" x2="395" y1="478.5391" y2="478.5391"/><text fill="#D9B8FF" font-family="sans-serif" font-size="14" font-weight="bold" lengthAdjust="spacing" textLength="88" x="208" y="500.5342">dns_names</text><text fill="#D9B8FF" font-family="sans-serif" font-size="14" lengthAdjust="spacing" textLength="58" x="296" y="500.5342">: string[]</text><text fill="#D9B8FF" font-family="sans-serif" font-size="14" font-weight="bold" lengthAdjust="spacing" textLength="59" x="208" y="526.8311">expires</text><text fill="#D9B8FF" font-family="sans-serif" font-size="14" lengthAdjust="spacing" textLength="70" x="267" y="526.8311">: datetime</text><text fill="#D9B8FF" font-family="sans-serif" font-size="14" font-weight="bold" lengthAdjust="spacing" textLength="129" x="208" y="553.1279">sha1_fingerprint</text><text fill="#D9B8FF" font-family="sans-serif" font-size="14" lengthAdjust="spacing" textLength="48" x="337" y="553.1279">: string</text></g><!--class resource--><g id="elem_resource"><rect codeLine="34" fill="#3D176E" height="310.7578" id="resource" rx="2.5" ry="2.5" style="stroke:#000D19;stroke-width:0.5;" width="227" x="76" y="7"/><ellipse cx="144.75" cy="26.8945" fill="#ADD1B2" rx="11" ry="11" style="stroke:#181818;stroke-width:1.0;"/><path d="M147.7188,32.5352 Q147.1406,32.832 146.5,32.9727 Q145.8594,33.1289 145.1563,33.1289 Q142.6563,33.1289 141.3281,31.4883 Q140.0156,29.832 140.0156,26.707 Q140.0156,23.582 141.3281,21.9258 Q142.6563,20.2695 145.1563,20.2695 Q145.8594,20.2695 146.5,20.4258 Q147.1563,20.582 147.7188,20.8789 L147.7188,23.5977 Q147.0938,23.0195 146.5,22.7539 Q145.9063,22.4727 145.2813,22.4727 Q143.9375,22.4727 143.25,23.5508 Q142.5625,24.6133 142.5625,26.707 Q142.5625,28.8008 143.25,29.8789 Q143.9375,30.9414 145.2813,30.9414 Q145.9063,30.9414 146.5,30.6758 Q147.0938,30.3945 147.7188,29.8164 L147.7188,32.5352 Z " fill="#000000"/><text fill="#D9B8FF" font-family="Helvetica" font-size="17" lengthAdjust="spacing" textLength="71" x="170.25" y="32.7798">resource</text><line style="stroke:#000D19;stroke-width:0.5;" x1="77" x2="302" y1="46.7891" y2="46.7891"/><text fill="#D9B8FF" font-family="sans-serif" font-size="14" font-weight="bold" lengthAdjust="spacing" textLength="29" x="87" y="68.7842">age</text><text fill="#D9B8FF" font-family="sans-serif" font-size="14" lengthAdjust="spacing" textLength="66" x="116" y="68.7842">: duration</text><text fill="#D9B8FF" font-family="sans-serif" font-size="14" font-weight="bold" lengthAdjust="spacing" textLength="43" x="87" y="95.0811">atime</text><text fill="#D9B8FF" font-family="sans-serif" font-size="14" lengthAdjust="spacing" textLength="70" x="130" y="95.0811">: datetime</text><text fill="#D9B8FF" font-family="sans-serif" font-size="14" font-weight="bold" lengthAdjust="spacing" textLength="43" x="87" y="121.3779">ctime</text><text fill="#D9B8FF" font-family="sans-serif" font-size="14" lengthAdjust="spacing" textLength="70" x="130" y="121.3779">: datetime</text><text fill="#D9B8FF" font-family="sans-serif" font-size="14" font-weight="bold" lengthAdjust="spacing" textLength="14" x="87" y="147.6748">id</text><text fill="#D9B8FF" font-family="sans-serif" font-size="14" lengthAdjust="spacing" textLength="48" x="101" y="147.6748">: string</text><text fill="#D9B8FF" font-family="sans-serif" font-size="14" font-weight="bold" lengthAdjust="spacing" textLength="33" x="87" y="173.9717">kind</text><text fill="#D9B8FF" font-family="sans-serif" font-size="14" lengthAdjust="spacing" textLength="48" x="120" y="173.9717">: string</text><text fill="#D9B8FF" font-family="sans-serif" font-size="14" font-weight="bold" lengthAdjust="spacing" textLength="90" x="87" y="200.2686">last_access</text><text fill="#D9B8FF" font-family="sans-serif" font-size="14" lengthAdjust="spacing" textLength="66" x="177" y="200.2686">: duration</text><text fill="#D9B8FF" font-family="sans-serif" font-size="14" font-weight="bold" lengthAdjust="spacing" textLength="90" x="87" y="226.5654">last_update</text><text fill="#D9B8FF" font-family="sans-serif" font-size="14" lengthAdjust="spacing" textLength="66" x="177" y="226.5654">: duration</text><text fill="#D9B8FF" font-family="sans-serif" font-size="14" font-weight="bold" lengthAdjust="spacing" textLength="48" x="87" y="252.8623">mtime</text><text fill="#D9B8FF" font-family="sans-serif" font-size="14" lengthAdjust="spacing" textLength="70" x="135" y="252.8623">: datetime</text><text fill="#D9B8FF" font-family="sans-serif" font-size="14" font-weight="bold" lengthAdjust="spacing" textLength="43" x="87" y="279.1592">name</text><text fill="#D9B8FF" font-family="sans-serif" font-size="14" lengthAdjust="spacing" textLength="48" x="130" y="279.1592">: string</text><text fill="#D9B8FF" font-family="sans-serif" font-size="14" font-weight="bold" lengthAdjust="spacing" textLength="34" x="87" y="305.4561">tags</text><text fill="#D9B8FF" font-family="sans-serif" font-size="14" lengthAdjust="spacing" textLength="171" x="121" y="305.4561">: dictionary[string, string]</text></g><!--reverse link aws_resource to aws_iam_server_certificate--><g id="link_aws_resource_aws_iam_server_certificate"><path codeLine="46" d="M109.609,555.5571 C129.059,596.2071 152.67,645.53 172.14,686.2 " fill="none" id="aws_resource-backto-aws_iam_server_certificate" style="stroke:#FFAF37;stroke-width:2.0;"/><polygon fill="none" points="101.84,539.32,104.1967,558.1467,115.0214,552.9674,101.84,539.32" style="stroke:#FFAF37;stroke-width:2.0;"/></g><!--reverse link certificate to aws_iam_server_certificate--><g id="link_certificate_aws_iam_server_certificate"><path codeLine="47" d="M258.0898,581.8485 C239.0698,620.8485 223.14,653.5 207.19,686.21 " fill="none" id="certificate-backto-aws_iam_server_certificate" style="stroke:#FFAF37;stroke-width:2.0;"/><polygon fill="none" points="265.98,565.67,252.697,579.2185,263.4827,584.4786,265.98,565.67" style="stroke:#FFAF37;stroke-width:2.0;"/></g><!--reverse link resource to aws_resource--><g id="link_resource_aws_resource"><path codeLine="48" d="M136.1151,335.0881 C119.1551,389.6281 106.92,428.98 95.86,464.56 " fill="none" id="resource-backto-aws_resource" style="stroke:#FFAF37;stroke-width:2.0;"/><polygon fill="none" points="141.46,317.9,130.3857,333.3065,141.8445,336.8698,141.46,317.9" style="stroke:#FFAF37;stroke-width:2.0;"/></g><!--reverse link resource to certificate--><g id="link_resource_certificate"><path codeLine="49" d="M243.895,335.0599 C257.375,377.6199 265.81,404.23 276.61,438.31 " fill="none" id="resource-backto-certificate" style="stroke:#FFAF37;stroke-width:2.0;"/><polygon fill="none" points="238.46,317.9,238.1751,336.8715,249.615,333.2482,238.46,317.9" style="stroke:#FFAF37;stroke-width:2.0;"/></g><!--SRC=[XPFDRjim48JlUWe2kGanO3T871Uv90QAzX84JMz18Ap9fKNO8eNbAgxxy-wbh2IbACM-pdoSdLr1fL4eiAfvBogiLaW-ynjZQo2en2sHsotTrf4uqnhqnJmrlpZB9u5xg51ynUqBif6G4ZzA8pSMlHUV8kiEv6PDhh6gYsS2wuE5bYDgkGNlRvd9h1h6g8nQhAwrJiaqzEn2pUPNEC0SAQHNP3gTgjaYHKwEEhhtE_5eVg6OnKUxTuo3ceCH1-feovQ8IWuMVVC_xFW0IXcx5fUHzhthH1Qffp-MeDokfJLiVJp6Cn8wtjUu76o5YskbvwFmju_WJBQd4x3pXO6gy4WlI8L4OgD3VqRnEylp6hZCyyyXa4Afx6_qYj2xXcJ70TaHB4rJrXSsdCd_Pv-UWuu_QqETgWBBfiAW-X9cXGuCKXrG7XdGxx36Gq93mCRPLccJabGveXaLPUTvE6DV2BEu02d3hvLCE3XDtMObJZKofzsz5yomxXADR9y1xPywx_oLUGwhzevzysSocHpvQbbyyvFmIEoRb7hnity0]--></g></svg>

<svg xmlns="http://www.w3.org/2000/svg" width="403" height="767" viewBox="0 0 403 767"><rect width="269" height="74.086" x="55" y="686.43" fill="#3D176E" rx="2.5" ry="2.5" style="stroke:#000d19;stroke-width:.5"/><circle cx="70" cy="706.324" r="11" fill="#ADD1B2" style="stroke:#181818;stroke-width:1"/><path d="M72.969 711.965q-.578.297-1.219.438-.64.156-1.344.156-2.5 0-3.828-1.64-1.312-1.657-1.312-4.782t1.312-4.781q1.328-1.657 3.828-1.657.703 0 1.344.157.656.156 1.219.453v2.719q-.625-.579-1.219-.844-.594-.281-1.219-.281-1.344 0-2.031 1.078-.687 1.062-.687 3.156t.687 3.172q.688 1.062 2.031 1.062.625 0 1.219-.265.594-.282 1.219-.86z"/><text x="89" y="712.21" fill="#D9B8FF" font-family="Helvetica" font-size="17" textLength="227">aws_iam_server_certificate</text><path d="M56 726.219h267" style="stroke:#000d19;stroke-width:.5"/><text x="66" y="748.214" fill="#D9B8FF" font-family="sans-serif" font-size="14" font-weight="bold" textLength="35">path</text><text x="101" y="748.214" fill="#D9B8FF" font-family="sans-serif" font-size="14" textLength="48">: string</text><rect width="155" height="74.086" x="7" y="465.05" fill="#3D176E" rx="2.5" ry="2.5" style="stroke:#000d19;stroke-width:.5"/><circle cx="22" cy="484.945" r="11" fill="#ADD1B2" style="stroke:#181818;stroke-width:1"/><path d="M24.969 490.585q-.578.297-1.219.438-.64.156-1.344.156-2.5 0-3.828-1.64-1.312-1.657-1.312-4.782t1.312-4.781q1.328-1.656 3.828-1.656.703 0 1.344.156.656.156 1.219.453v2.719q-.625-.579-1.219-.844-.594-.281-1.219-.281-1.343 0-2.031 1.078-.687 1.062-.687 3.156t.687 3.172q.688 1.062 2.031 1.062.625 0 1.219-.265.594-.281 1.219-.86z"/><text x="41" y="490.83" fill="#D9B8FF" font-family="Helvetica" font-size="17" textLength="113">aws_resource</text><path d="M8 504.839h153" style="stroke:#000d19;stroke-width:.5"/><text x="18" y="526.834" fill="#D9B8FF" font-family="sans-serif" font-size="14" font-weight="bold" textLength="26">arn</text><text x="44" y="526.834" fill="#D9B8FF" font-family="sans-serif" font-size="14" textLength="48">: string</text><rect width="199" height="126.68" x="197" y="438.75" fill="#3D176E" rx="2.5" ry="2.5" style="stroke:#000d19;stroke-width:.5"/><circle cx="245.75" cy="458.644" r="11" fill="#ADD1B2" style="stroke:#181818;stroke-width:1"/><path d="M248.719 464.285q-.578.297-1.219.438-.64.156-1.344.156-2.5 0-3.828-1.64-1.312-1.657-1.312-4.782t1.312-4.781q1.328-1.656 3.828-1.656.703 0 1.344.156.656.156 1.219.453v2.719q-.625-.579-1.219-.844-.594-.281-1.219-.281-1.344 0-2.031 1.078-.687 1.062-.687 3.156t.687 3.172q.688 1.062 2.031 1.062.625 0 1.219-.265.594-.281 1.219-.86z"/><text x="271.25" y="464.53" fill="#D9B8FF" font-family="Helvetica" font-size="17" textLength="83">certificate</text><path d="M198 478.539h197" style="stroke:#000d19;stroke-width:.5"/><text x="208" y="500.534" fill="#D9B8FF" font-family="sans-serif" font-size="14" font-weight="bold" textLength="88">dns_names</text><text x="296" y="500.534" fill="#D9B8FF" font-family="sans-serif" font-size="14" textLength="58">: string[]</text><text x="208" y="526.831" fill="#D9B8FF" font-family="sans-serif" font-size="14" font-weight="bold" textLength="59">expires</text><text x="267" y="526.831" fill="#D9B8FF" font-family="sans-serif" font-size="14" textLength="70">: datetime</text><text x="208" y="553.128" fill="#D9B8FF" font-family="sans-serif" font-size="14" font-weight="bold" textLength="129">sha1_fingerprint</text><text x="337" y="553.128" fill="#D9B8FF" font-family="sans-serif" font-size="14" textLength="48">: string</text><rect width="227" height="310.758" x="76" y="7" fill="#3D176E" rx="2.5" ry="2.5" style="stroke:#000d19;stroke-width:.5"/><circle cx="144.75" cy="26.895" r="11" fill="#ADD1B2" style="stroke:#181818;stroke-width:1"/><path d="M147.719 32.535q-.578.297-1.219.438-.64.156-1.344.156-2.5 0-3.828-1.64-1.312-1.657-1.312-4.782t1.312-4.781q1.328-1.656 3.828-1.656.703 0 1.344.156.656.156 1.219.453v2.719q-.625-.578-1.219-.844-.594-.281-1.219-.281-1.344 0-2.031 1.078-.687 1.062-.687 3.156t.687 3.172q.688 1.062 2.031 1.062.625 0 1.219-.265.594-.281 1.219-.86z"/><text x="170.25" y="32.78" fill="#D9B8FF" font-family="Helvetica" font-size="17" textLength="71">resource</text><path d="M77 46.789h225" style="stroke:#000d19;stroke-width:.5"/><text x="87" y="68.784" fill="#D9B8FF" font-family="sans-serif" font-size="14" font-weight="bold" textLength="29">age</text><text x="116" y="68.784" fill="#D9B8FF" font-family="sans-serif" font-size="14" textLength="66">: duration</text><text x="87" y="95.081" fill="#D9B8FF" font-family="sans-serif" font-size="14" font-weight="bold" textLength="43">atime</text><text x="130" y="95.081" fill="#D9B8FF" font-family="sans-serif" font-size="14" textLength="70">: datetime</text><text x="87" y="121.378" fill="#D9B8FF" font-family="sans-serif" font-size="14" font-weight="bold" textLength="43">ctime</text><text x="130" y="121.378" fill="#D9B8FF" font-family="sans-serif" font-size="14" textLength="70">: datetime</text><text x="87" y="147.675" fill="#D9B8FF" font-family="sans-serif" font-size="14" font-weight="bold" textLength="14">id</text><text x="101" y="147.675" fill="#D9B8FF" font-family="sans-serif" font-size="14" textLength="48">: string</text><text x="87" y="173.972" fill="#D9B8FF" font-family="sans-serif" font-size="14" font-weight="bold" textLength="33">kind</text><text x="120" y="173.972" fill="#D9B8FF" font-family="sans-serif" font-size="14" textLength="48">: string</text><text x="87" y="200.269" fill="#D9B8FF" font-family="sans-serif" font-size="14" font-weight="bold" textLength="90">last_access</text><text x="177" y="200.269" fill="#D9B8FF" font-family="sans-serif" font-size="14" textLength="66">: duration</text><text x="87" y="226.565" fill="#D9B8FF" font-family="sans-serif" font-size="14" font-weight="bold" textLength="90">last_update</text><text x="177" y="226.565" fill="#D9B8FF" font-family="sans-serif" font-size="14" textLength="66">: duration</text><text x="87" y="252.862" fill="#D9B8FF" font-family="sans-serif" font-size="14" font-weight="bold" textLength="48">mtime</text><text x="135" y="252.862" fill="#D9B8FF" font-family="sans-serif" font-size="14" textLength="70">: datetime</text><text x="87" y="279.159" fill="#D9B8FF" font-family="sans-serif" font-size="14" font-weight="bold" textLength="43">name</text><text x="130" y="279.159" fill="#D9B8FF" font-family="sans-serif" font-size="14" textLength="48">: string</text><text x="87" y="305.456" fill="#D9B8FF" font-family="sans-serif" font-size="14" font-weight="bold" textLength="34">tags</text><text x="121" y="305.456" fill="#D9B8FF" font-family="sans-serif" font-size="14" textLength="171">: dictionary[string, string]</text><g fill="none"><path d="M109.609 555.557c19.45 40.65 43.061 89.973 62.531 130.643" style="stroke:#ffaf37;stroke-width:2"/><path d="m101.84 539.32 2.357 18.827 10.824-5.18z" style="stroke:#ffaf37;stroke-width:2"/></g><path fill="none" d="M258.09 581.849c-19.02 39-34.95 71.651-50.9 104.361m58.79-120.54-13.283 13.548 10.786 5.26z" style="stroke:#ffaf37;stroke-width:2"/><g fill="none"><path d="M136.115 335.088c-16.96 54.54-29.195 93.892-40.255 129.472" style="stroke:#ffaf37;stroke-width:2"/><path d="m141.46 317.9-11.074 15.407 11.459 3.563z" style="stroke:#ffaf37;stroke-width:2"/></g><path fill="none" d="M243.895 335.06c13.48 42.56 21.915 69.17 32.715 103.25M238.46 317.9l-.285 18.972 11.44-3.624z" style="stroke:#ffaf37;stroke-width:2"/></svg>
